contributed-vectors/filter_box.svg

<svg xmlns="http://www.w3.org/2000/svg" xml:space="preserve" style="fill-rule:evenodd;clip-rule:evenodd;stroke-linejoin:round;stroke-miterlimit:2" viewBox="0 0 192 192"><path d="M164.5 21.5c0-5.519-4.481-10-10-10h-133c-5.519 0-10 4.481-10 10v133c0 5.519 4.481 10 10 10h133c5.519 0 10-4.481 10-10v-133Z" style="fill:#f9de81" transform="translate(8 8)"/><path d="m125.985 115.993 4.926 4.982a4.834 4.834 0 0 1-3.438 8.233H63.988a4.835 4.835 0 0 1-3.437-8.233l4.925-4.982V87.858c0-13.395 10.071-24.619 23.543-27.463v-5.487l.001-.04c.023-3.429 3.021-6.206 6.711-6.206 3.703 0 6.711 2.799 6.711 6.246v5.487c13.472 2.844 23.543 14.068 23.543 27.463v28.135Z" style="fill:#fff" transform="translate(13.31 12.892) scale(.86378)"/><path d="M101.773 141.884c-.031 4.22-3.998 7.638-8.879 7.638-4.901 0-8.879-3.445-8.879-7.687h17.758v.049Z" style="fill:#fff" transform="translate(15.993 5.207) scale(.86378)"/><path d="M115.398 83.913c0-1.689-1.31-3.06-2.924-3.06H80.065c-1.614 0-2.924 1.371-2.924 3.06v.68c0 1.689 1.31 3.06 2.924 3.06h32.409c1.614 0 2.924-1.371 2.924-3.06v-.68Z" style="fill:#9abeff" transform="matrix(.90396 0 0 .86378 8.976 12.892)"/><path d="M115.398 83.913c0-1.689-1.919-3.06-4.284-3.06H81.425c-2.364 0-4.284 1.371-4.284 3.06v.68c0 1.689 1.92 3.06 4.284 3.06h29.689c2.365 0 4.284-1.371 4.284-3.06v-.68Z" style="fill:#9abeff" transform="matrix(.61699 0 0 .86378 36.836 24.64)"/><path d="M115.398 83.913c0-1.689-5.653-3.06-12.617-3.06H89.758c-6.964 0-12.617 1.371-12.617 3.06v.68c0 1.689 5.653 3.06 12.617 3.06h13.023c6.964 0 12.617-1.371 12.617-3.06v-.68Z" style="fill:#9abeff" transform="matrix(.20949 0 0 .86378 76.065 36.387)"/></svg>

<?xml version="1.0" encoding="UTF-8" standalone="no"?>
<!DOCTYPE svg PUBLIC "-//W3C//DTD SVG 1.1//EN" "http://www.w3.org/Graphics/SVG/1.1/DTD/svg11.dtd">
<svg width="100%" height="100%" viewBox="0 0 192 192" version="1.1" xmlns="http://www.w3.org/2000/svg" xmlns:xlink="http://www.w3.org/1999/xlink" xml:space="preserve" xmlns:serif="http://www.serif.com/" style="fill-rule:evenodd;clip-rule:evenodd;stroke-linejoin:round;stroke-miterlimit:2;">
    <g id="Layer1">
        <g transform="matrix(1,0,0,1,8,8)">
            <path d="M164.5,21.5C164.5,15.981 160.019,11.5 154.5,11.5L21.5,11.5C15.981,11.5 11.5,15.981 11.5,21.5L11.5,154.5C11.5,160.019 15.981,164.5 21.5,164.5L154.5,164.5C160.019,164.5 164.5,160.019 164.5,154.5L164.5,21.5Z" style="fill:rgb(249,222,129);"/>
        </g>
        <g transform="matrix(0.863781,0,0,0.863781,13.3098,12.8923)">
            <g>
                <path d="M125.985,115.993C125.985,115.993 128.26,118.294 130.911,120.975C132.282,122.362 132.685,124.436 131.934,126.236C131.182,128.036 129.423,129.208 127.473,129.208C110.894,129.208 80.567,129.208 63.988,129.208C62.038,129.208 60.279,128.036 59.527,126.236C58.776,124.436 59.179,122.362 60.551,120.975C63.202,118.294 65.476,115.993 65.476,115.993L65.476,87.858C65.476,74.463 75.547,63.239 89.019,60.395L89.019,54.908L89.02,54.868C89.043,51.439 92.041,48.662 95.731,48.662C99.434,48.662 102.442,51.461 102.442,54.908L102.442,60.395C115.914,63.239 125.985,74.463 125.985,87.858L125.985,115.993Z" style="fill:white;"/>
                <g transform="matrix(1,0,0,1,3.10619,-8.897)">
                    <path d="M101.773,141.884C101.742,146.104 97.775,149.522 92.894,149.522C87.993,149.522 84.015,146.077 84.015,141.835L101.773,141.835L101.773,141.884Z" style="fill:white;"/>
                </g>
            </g>
            <g>
                <g transform="matrix(1.04651,0,0,1,-5.01667,0)">
                    <path d="M115.398,83.913C115.398,82.224 114.088,80.853 112.474,80.853L80.065,80.853C78.451,80.853 77.141,82.224 77.141,83.913L77.141,84.593C77.141,86.282 78.451,87.653 80.065,87.653L112.474,87.653C114.088,87.653 115.398,86.282 115.398,84.593L115.398,83.913Z" style="fill:rgb(154,190,255);"/>
                </g>
                <g transform="matrix(0.714286,0,0,1,27.236,13.5997)">
                    <path d="M115.398,83.913C115.398,82.224 113.479,80.853 111.114,80.853L81.425,80.853C79.061,80.853 77.141,82.224 77.141,83.913L77.141,84.593C77.141,86.282 79.061,87.653 81.425,87.653L111.114,87.653C113.479,87.653 115.398,86.282 115.398,84.593L115.398,83.913Z" style="fill:rgb(154,190,255);"/>
                </g>
                <g transform="matrix(0.242525,0,0,1,72.6522,27.1994)">
                    <path d="M115.398,83.913C115.398,82.224 109.745,80.853 102.781,80.853L89.758,80.853C82.794,80.853 77.141,82.224 77.141,83.913L77.141,84.593C77.141,86.282 82.794,87.653 89.758,87.653L102.781,87.653C109.745,87.653 115.398,86.282 115.398,84.593L115.398,83.913Z" style="fill:rgb(154,190,255);"/>
                </g>
            </g>
        </g>
    </g>
</svg>
